//@author: elliotwoods
//@help: template for texture fx
//@tags: texture
//@credits: 

Texture2D texture2d : PREVIOUS;

struct psInput
{
	float4 p : SV_Position;
	float2 uv : TEXCOORD0;
};


float4 PS(psInput input) : SV_Target
{
	return int(input.p.x) % 2 == int(input.p.y) % 2;
}

technique10 Process
{
	pass P0
	{
		SetPixelShader(CompileShader(ps_4_0,PS()));
	}
}



